<?xml version="1.0" encoding="UTF-8"?>
<map version="1.10" tiledversion="1.12.1" orientation="orthogonal" renderorder="right-down" width="22" height="25" tilewidth="16" tileheight="16" infinite="0" nextlayerid="4" nextobjectid="1">
 <tileset firstgid="1" source="../tilesets/walls_and_floors.tsx"/>
 <tileset firstgid="100" source="../tilesets/interior.tsx"/>
 <layer id="1" name="Walls and Floors" width="22" height="25">
  <data encoding="csv">
1,2,2,2,2,2,2,2,2,2,2,2,2,2,2,2,2,2,2,2,2,3,
10,73,74,74,74,74,74,74,74,74,74,74,74,74,74,74,74,74,74,74,75,12,
10,82,83,83,83,83,83,83,83,83,83,83,83,83,83,83,83,83,83,83,84,12,
10,91,92,92,92,92,92,92,92,92,92,92,92,92,92,92,92,92,92,92,93,12,
10,46,47,47,47,47,47,47,47,47,47,47,47,47,47,47,47,47,47,47,48,12,
10,55,56,56,56,56,56,56,56,56,56,56,56,56,56,56,56,56,56,56,57,12,
10,55,56,56,56,56,56,56,56,56,56,56,56,56,56,56,56,56,56,56,57,12,
10,55,56,56,56,56,56,56,56,56,56,56,56,56,56,56,56,56,56,56,57,12,
10,55,56,56,56,56,56,56,56,56,56,56,56,56,56,56,56,56,56,56,57,12,
10,55,56,56,56,56,56,56,56,56,56,56,56,56,56,56,56,56,56,56,57,12,
10,55,56,56,56,56,56,56,56,56,56,56,56,56,56,56,56,56,56,56,57,12,
10,55,56,56,56,56,56,56,56,56,56,56,56,56,56,56,56,56,56,56,57,12,
10,55,56,56,56,56,56,56,56,56,56,56,56,56,56,56,56,56,56,56,57,12,
10,55,56,56,56,56,56,56,56,56,56,56,56,56,56,56,56,56,56,56,57,12,
10,55,56,56,56,56,56,56,56,56,56,56,56,56,56,56,56,56,56,56,57,12,
10,55,56,56,56,56,56,56,56,56,56,56,56,56,56,56,56,56,56,56,57,12,
10,55,56,56,56,56,56,56,56,56,56,56,56,56,56,56,56,56,56,56,57,12,
10,55,56,56,56,56,56,56,56,56,56,56,56,56,56,56,56,56,56,56,57,12,
10,55,56,56,56,56,56,56,56,56,56,56,56,56,56,56,56,56,56,56,57,12,
10,55,56,56,56,56,56,56,56,56,56,56,56,56,56,56,56,56,56,56,57,12,
10,55,56,56,56,56,56,56,56,56,56,56,56,56,56,56,56,56,56,56,57,12,
10,55,56,56,56,56,56,56,56,56,56,56,56,56,56,56,56,56,56,56,57,12,
10,55,56,56,56,56,56,56,56,56,56,56,56,56,56,56,56,56,56,56,57,12,
10,64,65,65,65,65,65,65,65,65,65,65,65,65,65,65,65,65,65,65,66,12,
19,20,20,20,20,20,20,20,20,20,20,20,20,20,20,20,20,20,20,20,20,21
</data>
 </layer>
 <layer id="3" name="Interior" width="22" height="25">
  <data encoding="csv">
0,0,0,0,0,0,0,0,0,0,0,0,0,0,0,0,0,0,0,0,0,0,
0,0,0,0,0,0,0,0,0,0,0,112,0,0,0,0,0,0,0,0,0,0,
0,0,0,0,113,0,0,136,0,0,0,121,0,0,0,136,0,101,0,0,0,0,
0,0,0,0,0,0,0,0,0,0,0,133,0,0,0,0,0,0,0,100,0,0,
0,0,0,0,0,0,0,0,0,0,0,0,0,0,0,0,0,0,0,0,0,0,
0,0,0,0,0,0,0,0,0,0,0,0,0,0,0,0,0,0,0,0,0,0,
0,0,0,0,0,0,0,0,0,0,0,0,0,0,0,0,0,0,0,0,0,0,
0,0,0,0,0,0,0,0,0,0,0,0,0,0,0,0,0,0,0,0,0,0,
0,0,0,0,0,0,0,0,0,0,0,0,0,0,0,0,0,0,0,0,0,0,
0,0,0,0,0,0,0,0,0,0,0,0,0,0,0,0,0,0,0,0,0,0,
0,0,0,0,0,0,0,0,0,0,0,0,0,0,0,0,0,0,0,0,0,0,
0,0,0,0,0,0,0,0,0,0,0,0,0,0,0,0,0,0,0,0,0,0,
0,0,0,0,0,0,0,0,0,0,0,0,0,0,0,0,0,0,0,0,0,0,
0,0,0,0,0,0,0,0,0,0,0,0,0,0,0,0,0,0,0,0,0,0,
0,0,0,0,0,0,0,0,0,0,0,0,0,0,0,0,0,0,0,0,0,0,
0,0,0,0,0,0,0,0,0,0,0,0,0,0,0,0,0,0,0,0,0,0,
0,0,0,0,0,0,0,0,0,0,0,0,0,0,0,0,0,0,0,0,0,0,
0,0,0,0,0,0,0,0,0,0,0,0,0,0,0,0,0,0,0,0,0,0,
0,0,0,0,0,0,0,0,0,0,0,0,0,0,0,0,0,0,0,0,0,0,
0,0,0,0,0,0,0,0,0,0,0,0,0,0,0,0,0,0,0,0,0,0,
0,0,0,0,0,0,0,0,0,0,0,0,0,0,0,0,0,0,0,0,0,0,
0,0,0,0,0,0,0,0,0,0,0,0,0,0,0,0,0,0,0,0,0,0,
0,0,0,0,0,0,0,0,0,0,0,0,0,0,0,0,0,0,0,0,0,0,
0,0,0,0,0,0,0,0,0,0,0,0,0,0,0,0,0,0,0,0,0,0,
0,0,0,0,0,0,0,0,0,0,0,0,0,0,0,0,0,0,0,0,0,0
</data>
 </layer>
</map>
